HTML/img/Component/ENA Cipher.svg

<svg xmlns="http://www.w3.org/2000/svg" xml:space="preserve" viewBox="0 0 348 348"><style>.prefix__st0{fill:none;stroke:#000;stroke-width:2}.prefix__st1{fill:#aaa}.prefix__st1,.prefix__st2{stroke:#000;stroke-miterlimit:10}</style><path d="M5.1 5.8H342v337.7H5.1V5.8z" class="prefix__st0"/><path d="M282.7 40.6c0-8.4 7-15.2 15.6-15.2 4.1 0 8.1 1.6 11 4.4s4.6 6.7 4.6 10.7c0 8.4-7 15.2-15.6 15.2s-15.6-6.8-15.6-15.1z" class="prefix__st0"/><path d="M6.7 324.4H342v19H6.7z" class="prefix__st1"/><path d="M9.4 326.9h32.9V341H9.4zm296.3 0h32.9V341h-32.9z" class="prefix__st2"/><path fill="#b4b4b4" stroke="#000" stroke-miterlimit="10" d="M59.3 109.8h223.4V271H59.3z"/><path d="M59.3 110h223.4v14.9H59.3z" class="prefix__st1"/><path d="M62.3 128h212.9v21.5H62.3zm0 51.7h18.8v21H62.3zm21.5 0h18.8v21H83.8zm21.5 0h18.8v21h-18.8zm21.6 0h18.8v21h-18.8zm21.5 0h18.8v21h-18.8zm21.5 0h18.8v21h-18.8zm21.8 0h18.8v21h-18.8zm21.5 0H232v21h-18.8zm21.6 0h18.8v21h-18.8zm21.5 0h18.8v21h-18.8zM73 204.6h18.8v21H73zm21.6 0h18.8v21H94.6zm21.5 0h18.8v21h-18.8zm21.5 0h18.8v21h-18.8zm21.6 0H178v21h-18.8zm21.7 0h18.8v21h-18.8zm21.6 0h18.8v21h-18.8zm21.5 0h18.8v21H224zm21.5 0h18.8v21h-18.8zM83.7 229.5h18.8v21H83.7zm21.5 0H124v21h-18.8zm21.5 0h18.8v21h-18.8zm21.6 0h18.8v21h-18.8zm21.5 0h18.8v21h-18.8zm21.8 0h18.8v21h-18.8zm21.5 0h18.8v21h-18.8zm21.7 0h29.6v21h-29.6zm21.5-76h18.8v21h-18.8zm13.3-41.9h11v11h-11zm-13.3 0h11v11h-11zm-13.5 0h11v11h-11z" class="prefix__st2"/></svg>

<svg viewBox="0 0 348 348" xml:space="preserve" xmlns="http://www.w3.org/2000/svg"><style>.prefix__st0{fill:none;stroke:#000;stroke-width:2}.prefix__st1{fill:#aaa}.prefix__st1,.prefix__st2{stroke:#000;stroke-miterlimit:10}</style><path class="prefix__st0" d="M5.1 5.8H342v337.7H5.1V5.8z"/><path class="prefix__st0" d="M282.7 40.6c0-8.4 7-15.2 15.6-15.2 4.1 0 8.1 1.6 11 4.4s4.6 6.7 4.6 10.7c0 8.4-7 15.2-15.6 15.2s-15.6-6.8-15.6-15.1z"/><path class="prefix__st1" d="M6.7 324.4H342V343.4H6.7z"/><path class="prefix__st2" d="M9.4 326.9H42.3V341H9.4z"/><path class="prefix__st2" d="M305.7 326.9H338.6V341H305.7z"/><path fill="#b4b4b4" stroke="#000" stroke-miterlimit="10" d="M59.3 109.8H282.7V271H59.3z"/><path class="prefix__st1" d="M59.3 110H282.7V124.9H59.3z"/><path class="prefix__st2" d="M62.3 128H275.2V149.5H62.3z"/><path class="prefix__st2" d="M62.3 179.7H81.1V200.7H62.3z"/><path class="prefix__st2" d="M83.8 179.7H102.6V200.7H83.8z"/><path class="prefix__st2" d="M105.3 179.7H124.1V200.7H105.3z"/><path class="prefix__st2" d="M126.9 179.7H145.7V200.7H126.9z"/><path class="prefix__st2" d="M148.4 179.7H167.2V200.7H148.4z"/><path class="prefix__st2" d="M169.9 179.7H188.7V200.7H169.9z"/><path class="prefix__st2" d="M191.7 179.7H210.5V200.7H191.7z"/><path class="prefix__st2" d="M213.2 179.7H232V200.7H213.2z"/><path class="prefix__st2" d="M234.8 179.7H253.6V200.7H234.8z"/><path class="prefix__st2" d="M256.3 179.7H275.1V200.7H256.3z"/><path class="prefix__st2" d="M73 204.6H91.8V225.6H73z"/><path class="prefix__st2" d="M94.6 204.6H113.4V225.6H94.6z"/><path class="prefix__st2" d="M116.1 204.6H134.9V225.6H116.1z"/><path class="prefix__st2" d="M137.6 204.6H156.4V225.6H137.6z"/><path class="prefix__st2" d="M159.2 204.6H178V225.6H159.2z"/><path class="prefix__st2" d="M180.9 204.6H199.7V225.6H180.9z"/><path class="prefix__st2" d="M202.5 204.6H221.3V225.6H202.5z"/><path class="prefix__st2" d="M224 204.6H242.8V225.6H224z"/><path class="prefix__st2" d="M245.5 204.6H264.3V225.6H245.5z"/><path class="prefix__st2" d="M83.7 229.5H102.5V250.5H83.7z"/><path class="prefix__st2" d="M105.2 229.5H124V250.5H105.2z"/><path class="prefix__st2" d="M126.7 229.5H145.5V250.5H126.7z"/><path class="prefix__st2" d="M148.3 229.5H167.1V250.5H148.3z"/><path class="prefix__st2" d="M169.8 229.5H188.6V250.5H169.8z"/><path class="prefix__st2" d="M191.6 229.5H210.4V250.5H191.6z"/><path class="prefix__st2" d="M213.1 229.5H231.9V250.5H213.1z"/><path class="prefix__st2" d="M234.8 229.5H264.4V250.5H234.8z"/><path class="prefix__st2" d="M256.3 153.5H275.1V174.5H256.3z"/><path class="prefix__st2" d="M269.6 111.6H280.6V122.6H269.6z"/><path class="prefix__st2" d="M256.3 111.6H267.3V122.6H256.3z"/><path class="prefix__st2" d="M242.8 111.6H253.8V122.6H242.8z"/></svg>
